**kern	**text
*clefG2	*
*k[b-]	*
*M4/4	*
*MM148	*
=1	=1
1r	.
=2	=2
4r	.
8r	.
16r	.
[16g	a
8g]	.
4.g'	a
=3	=3
16r	.
[16ccLL	ma
32ccL]	.
32ccJ	i
16fJJ	ku
8.ddL	o
[16b-Jk	ke
8b-L_	.
32b-KL]	.
16.b-'JJ	i
4r	.
=4	=4
2r	.
16r	.
8aL	i
[16fJk	ku
32fKLL]	.
[16.ccJ	yo
8ccJ_	.
=5	=5
2cc]	.
8r	.
16r	.
[16g	mi
16gKL]	.
8a	ni
16cc'Jk	su
=6	=6
8ccL	ka
16aL	to
16gJJ	de
8gL	shu
16aL	ge
16ddJJ	ki
4gg'	da
16gLL	gya
16gJ	pu
8aJ	mo
=7	=7
8ccL	e
16aL	shi
16gJJ	te
8gL	sho
16aL	ge
16ddJJ	ki
4gg'	da
16.ccLL	ko
32ccK	i
16a	no
[16gJJ	mo
=8	=8
16gKL]	.
8.g'J	so
16r	.
[16ccLL	ka
32ccL]	.
32ccJ	i
16aJJ	no
8gL	mo
8gJ	so
16bnKL	de
8a	ma
16bJk	de
=9	=9
8aL	ma
16b-L	ho
[16bnJJ	ra
8b]	.
8r	.
4r	.
16aLL	da
16a	da
16a	da
16bJJ	da
=10	=10
16ccLL	da
16cc#X	i
16f	su
16fJJ	ke
16r	.
16f#XLL	ko
16f#	ku
16fnJJ	te
8.gL	cho
[16cc#Jk	da
8cc#L]	.
8f'J	i
=11	=11
4r	.
16r	.
8aL	da
[16ccJk	chu
16ccLL]	.
16eJ	ke
8e'J	do
8cc#XL	ku
16aL	ru
[16ddJJ	ni
=12	=12
8ddL]	.
8cc#XJ	ru
16aLL	su
[16ccn	bi
32ccK]	.
16.cc'JJ	to
16b-LL	ki
16b-	ka
16bn	se
[16cc#XJJ	te
8cc#]	.
8r	.
=13	=13
4r	.
16bnLL	ba
16b-X	ri
16bn	ba
16b-XJJ	ri
4bn	chu
4r	.
=14	=14
1r	.
=15	=15
1r	.
=16	=16
1r	.
=17	=17
1r	.
=18	=18
1r	.
=19	=19
1r	.
=20	=20
2r	.
4r	.
8r	.
16r	.
16dd	ja
=21	=21
16ddLL	ja
16ddJJ	ja
4.dd'	ja
4r	.
8r	.
8d	se
=22	=22
8dL	tsu
8dJ	na
8.eL	ku
[16dJk	te
8d]	.
4a	mo
8d	ya
=23	=23
8dL	ru
8dJ	se
8.fL	ku
[16dJk	te
8d]	.
4.d'	mo
=24	=24
1r	.
=25	=25
4r	.
10.ddL	fa
20.ddL	i
40ddJJk	to
4r	.
8r	.
8d	a
=26	=26
8dL	no
8dJ	ko
8.eL	ni
[16dJk	na
16dLL]	.
16dJJ	n
4a	te
8d	na
=27	=27
8dL	re
8dJ	na
8.fL	i
[16dJk	ka
8d]	.
4.d	ra
=28	=28
1r	.
=29	=29
4r	.
10.ddL	fa
20.ddL	i
40ddJJk	to
4r	.
8r	.
16r	.
[16f#X	a
=30	=30
16f#KL]	.
8e	ri
[16f#XJk	no
16f#KL]	.
8f#	ma
[16f#Jk	ma
16f#KL]	.
8e	no
[16eJk	ji
16eKL]	.
8e	bu
[16f#Jk	n
=31	=31
16f#KL]	.
[8.dJ	wo
4d_	.
16d]	.
16r	.
8r	.
8r	.
16r	.
[16f#X	a
=32	=32
16f#KL]	.
8e	i
[16f#XJk	se
16f#KL]	.
8f#	re
[16f#Jk	ba
16f#KL]	.
8e	ke
[16eJk	se
16eKL]	.
8e	ra
[16f#Jk	se
=33	=33
16f#KL]	.
[8.dJ	ra
4d_	.
16d]	.
16r	.
8r	.
8r	.
16r	.
[16a	i
=34	=34
16aKL]	.
8g	ma
[16aJk	wa
16aKL]	.
8a	hi
[16aJk	to
16aKL]	.
8g	ri
[16gJk	bo
16gKL]	.
8g	chi
[16aJk	i
=35	=35
16aKL]	.
[8.f#XJ	no
16f#KL]	.
8e	ki
[16f#Jk	mi
16f#KL]	.
[8.gJ	ni
16g]	.
16r	.
8r	.
=36	=36
4r	.
8r	.
8f#X	u
8g	ta
4.a'	o
=37	=37
4r	.
8r	.
8bn	a
8a	ge
4.d	ru
=38	=38
8bnL	ha
8ee'J	i
8.aL	do
[16ddJk	zo
8dd]	.
8r	.
4r	.
=39	=39
8gL	vi
8f	vi
8cc	vi
8aJ	vi
8fL	vi
8aJ	vi
4g	vi
=40	=40
8cc	va
4g	vi
[8cc	va
16cc]	.
16r	.
4b-	ha
8a	pi
=41	=41
8r	.
8eeL	chu
8ff	ru
8eeJ	chu
4cc'	chu
4g	vi
=42	=42
8cc	va
4g	vi
[8cc	va
16cc]	.
16r	.
4b-	ha
8a	pi
=43	=43
8r	.
8eeL	chu
8ff	ru
8eeJ	chu
4cc'	chu
4g	i
=44	=44
8cc	ya
4g	i
[8cc	ya
16cc]	.
16r	.
4b-	a
8b-	ra
=45	=45
8cc	so
4dd	i
16r	.
[16b-	wa
8b-]	.
16r	.
[16g	shi
8g]	.
8r	.
=46	=46
4r	.
8gL	na
8fJ	i
8a	shu
4.g'	gi
=47	=47
8gL	no
8f	no
8cc	no
8aJ	n
8fL	no
8aJ	n
4g	vi
=48	=48
8cc	va
4g	vi
[8cc	va
16cc]	.
16r	.
4b-	ha
8a	pi
=49	=49
8r	.
8eeL	chu
8ff	ru
8eeJ	chu
4cc'	chu
4g	vi
=50	=50
8cc	va
4g	vi
[8cc	va
16cc]	.
16r	.
4b-	ha
8a	pi
=51	=51
8r	.
8eeL	chu
8ff	ru
8eeJ	chu
4cc'	chu
4g	po
=52	=52
8cc	ro
4g	po
[8cc	ro
16cc]	.
16r	.
8cc	na
4cc	mi
=53	=53
8bn	da
4a	shi
[8b	te
16b]	.
16r	.
8f#X	hi
8.aL	to
[16eJk	yo
=54	=54
8eL]	.
8f#XJ	hi
8.aL	to
[16eJk	yo
8eL]	.
8gJ	ri
8ccL	hi
16bnL	to
[16ccJJ	ri
=55	=55
8ccL]	.
8gJ	go
4a'	to
2r	.
=56	=56
1r	.
=57	=57
1r	.
=58	=58
1r	.
=59	=59
1r	.
=60	=60
1r	.
=61	=61
1r	.
=62	=62
1r	.
=63	=63
2r	.
4r	.
8r	.
8d	shi
=64	=64
8dL	ka
8dJ	ra
8.eL	re
[16dJk	te
8d]	.
4a	mo
8d	se
=65	=65
8dL	ka
8dJ	sa
8.fL	re
[16dJk	te
8d]	.
4.d'	mo
=66	=66
1r	.
=67	=67
4r	.
8r	.
16ddLL	u
[16ee-XJJ	wa
4ee-]	.
8r	.
[8d	da
=68	=68
16dKL]	.
8.dJ	shu
8.eL	de
[16dJk	ke
8d]	.
4a	ka
8d	mo
=69	=69
8dL	to
8dJ	me
8.fL	su
[16dJk	gi
8d]	.
4.d'	yo
=70	=70
1r	.
=71	=71
4r	.
10.ddL	fa
20.ddL	i
40ddJJk	to
4r	.
8r	.
16r	.
[16f#X	jo
=72	=72
8f#L]	.
8e	o
8f#X	shi
8f#J	ki
8f#L	wa
8e	i
8e	tsu
8eJ	ma
=73	=73
8f#X	de
[4.d	mo
16d]	.
16r	.
8r	.
8r	.
16r	.
[16f#	o
=74	=74
8f#L]	.
8e	to
8f#X	na
8f#J	ta
8f#L	chi
8e	no
8e	su
8eJ	ra
=75	=75
8f#X	n
[4.d	gu
16d]	.
16r	.
8r	.
8r	.
16r	.
[16a	mu
=76	=76
16aKL]	.
8g	i
[16aJk	shi
16aKL]	.
8a	ki
[16aJk	no
16aKL]	.
8g	u
[16gJk	chu
8.gL]	.
[16aJk	ka
=77	=77
16aKL]	.
[8.f#XJ	ra
8f#L]	.
8eJ	ki
8f#	mi
4.g'	ni
=78	=78
4r	.
8r	.
8f#X	to
8g	do
4.a'	ku
=79	=79
4r	.
8r	.
8bn	sa
8a	i
4.d	n
=80	=80
8bnL	ha
8ee'J	i
4r	.
2r	.
=81	=81
16gLL	vi
16gJ	vi
8fJ	vi
4cc'	vi
16gLL	vi
16gJ	vi
8fJ	vi
4cc'	vi
=82	=82
8gL	vi
8f	vi
8cc	vi
8aJ	vi
8fL	vi
8aJ	vi
4g	vi
=83	=83
8cc	va
4g	vi
[8cc	va
16cc]	.
16r	.
4b-	ha
8a	pi
=84	=84
8r	.
8eeL	chu
8ff	ru
8eeJ	chu
4cc'	chu
4g	vi
=85	=85
8cc	va
4g	vi
[8cc	va
16cc]	.
16r	.
4b-	ha
8a	pi
=86	=86
8r	.
8eeL	chu
8ff	ru
8eeJ	chu
4cc'	chu
4g	ku
=87	=87
8cc	ta
4g	ku
[8cc	ta
16cc]	.
16r	.
4b-	su
8b-	i
=88	=88
8cc	mi
4dd	n
16r	.
[16b-	wa
8b-]	.
16r	.
[16g	ha
8g]	.
8r	.
=89	=89
4r	.
8gL	chi
8fJ	ji
8a	ka
4.g'	n
=90	=90
8gL	ye
8f	ye
8cc	ye
8aJ	i
8fL	ye
8aJ	i
4g	vi
=91	=91
8cc	va
4g	vi
[8cc	va
16cc]	.
16r	.
4b-	ha
8a	pi
=92	=92
8r	.
8eeL	chu
8ff	ru
8eeJ	chu
4cc'	chu
4g	vi
=93	=93
8cc	va
4g	vi
[8cc	va
16cc]	.
16r	.
4b-	ha
8a	pi
=94	=94
8r	.
8eeL	chu
8ff	ru
8eeJ	chu
4cc'	chu
4g	a
=95	=95
8cc	re
4g	ko
[8cc	re
16cc]	.
16r	.
8cc	shi
4cc	ta
=96	=96
8bn	i
4a	ke
[8b	do
16b]	.
16r	.
8r	.
8aL	a
16aL	i
[16eJJ	ma
=97	=97
8eL]	.
8f#XJ	i
8.aL	mi
[16eJk	ma
8eL]	.
16gL	i
16gJJ	n
8ccL	ki
16bnL	ri
[16ccJJ	ki
=98	=98
32ccKLL]	.
16.bnJ	ri
8gJ	ma
4a'	i
2r	.
=99	=99
4r	.
8r	.
16r	.
[16bn	ha
8bL]	.
8fJ	pi
8dL	ni
16fL	fu
[16e-XJJ	ru
=100	=100
16e-KL]	.
8g	ma
16dJk	u
4r	.
4r	.
8r	.
16cLL	ki
16c#XJJ	mi
=101	=101
4f	ga
4r	.
16r	.
16cLL	su
16a	ki
16eJJ	da
4bn	yo
=102	=102
2r	.
8r	.
16gLL	cho
16gJJ	cho
16gLL	cho
16aJ	to
8dJ	ju
=103	=103
16fKL	n
8g	jo
16bnJk	na
8ccL	pi
8dJ	po
8r	.
16gLL	cha
16gJJ	cha
16gLL	cha
16aJ	n
8d'J	su
=104	=104
16fLL	to
16g	ra
16g	i
16b-JJ	mo
16ccLL	ge
16cc	n
16d	chi
16dJJ	n
8r	.
16gLL	chu
16gJJ	chu
16gLL	chu
16a	to
32dK	ha
16.d'JJ	n
=105	=105
16fKL	pa
8g	na
16b-Jk	o
8ccL	se
[8dJ	kyo
16dLL]	.
16dJ	ki
8d'J	ta
8gL	so
16dL	na
16e-XJJ	ni
=106	=106
16gLL	se
16e	ke
16e	n
[16dJJ	wa
16dLL]	.
16e-X	a
16e-	ma
16gJJ	ku
32gLLL	na
32gJ	i
16cc	da
16ee-X	ka
[16cJJ	ra
8.c]	.
16r	.
=107	=107
2r	.
4r	.
8gL	su
8b-J	ru
=108	=108
16cLL	de
16e-X	a
16e-	ba
16a-XJJ	ta
16bnKL	ni
8dd	che
[16ddJk	n
32ddKLL]	.
16.dd'JJ	ji
8r	.
8a-'L	va
16a-L	va
16a-JJ	va
=109	=109
16r	.
16a-XKL	va
8a-'J	va
8a-'L	va
16a-L	va
16a-JJ	va
16r	.
16a-KL	va
8a-'J	va
8gL	va
16gL	cha
16gJJ	ru
=110	=110
8b-L	vi
16.eL	na
32eJJk	su
8gL	bu
16aL	su
16aJJ	to
16b-LL	be
32b-L	i
32b-JJJ	su
16r	.
16g	de
4b-	bo
=111	=111
4b-'	n
4r	.
2r	.
=112	=112
2r	.
16ee-XKL	nya
8.dd'J	n
4g	vi
=113	=113
4cc'	va
4r	.
8r	.
4g	vi
8g	vi
=114	=114
8g	vi
4.cc'	va
16ccLL	va
16cc	va
16cc	va
16ccJJ	va
8gL	vi
8gJ	vi
=115	=115
16ccKL	va
8g	vi
[16gJk	vi
16gKL]	.
8g	vi
16ccJk	va
8r	.
4b-	ha
8a	pi
=116	=116
2r	.
4r	.
4g	i
=117	=117
8cc	ya
4g	i
[8cc	ya
16cc]	.
16r	.
4b-	a
8b-	ra
=118	=118
8cc	so
4dd	i
16r	.
[16b-	wa
8b-]	.
16r	.
[16g	shi
8g]	.
8r	.
=119	=119
4r	.
8gL	ra
8fJ	i
8a	shu
4.g'	gi
=120	=120
8gL	no
8f	no
8cc	no
8aJ	n
8fL	no
8aJ	n
4g	vi
=121	=121
8cc	va
4g	vi
[8cc	va
16cc]	.
16r	.
4b-	ha
8a	pi
=122	=122
8r	.
8eeL	chu
8ff	ru
8eeJ	chu
4cc'	chu
4g	vi
=123	=123
8cc	va
4g	vi
[8cc	va
16cc]	.
16r	.
4b-	ha
8a	pi
=124	=124
8r	.
8eeL	chu
8ff	ru
8eeJ	chu
4cc'	chu
4g	po
=125	=125
8cc	ro
4g	po
[8cc	ro
16cc]	.
16r	.
8cc	na
4cc	mi
=126	=126
8bn	da
4a	shi
[8b	te
16b]	.
16r	.
8r	.
8r	.
16r	.
16b-X	so
=127	=127
16c#XLL	n
16f#X	na
16a	ni
16ee-XJJ	se
16a-XLL	ke
16f#J	n
8e-XJ	wa
16cnLL	a
16e-	ma
16bn	ku
16ffJJ	na
8en'L	i
8gJ	vi
=128	=128
8aL	vi
8bn	vi
8cc	vi
8cc#XJ	vi
32cccLLL	vi
32bbn	vi
32aa	vi
32gg	vi
32ff	vi
32ee	vi
32dd	vi
32ccnJJJ	vi
8eeL	vi
[8a-XJ	va
=129	=129
2a-]	.
2r	.
==	==
*-	*-
